!!!!SEGMENT: pl-kk--kk-i-423--002-002_golabek-jakub--missa-2da-et-in-terra.krn
!!!cenid: 17xx:2559
!!!COM: Gołąbek, Jakub
!!!COM-rismID: pe30008748
!!!CDT: 1739-1789/03/30
!!!CNT: Polish
!!!OPR: Missa 2da
!!!OTL: Et in terra
!!!OMV: 002
!!!PDT:
!!!AGN: Sacred; Mass
!!!YEC: Copyright 2022 Narodowy Instytut Fryderyka Chopina (https://polishscores.org)
!!!YEM: License CC-BY-4.0 (https://creativecommons.org/licenses/by/4.0)
!!!SMS-siglum: PL-Kk
!!!SMS-shelfmark: Kk.I.423
!!!SMS-variant:
!!!SMS-altvar:
!!!SMS-shelfwork: 002-002 M
!!!NIFC-rismSourceID: 1001147334
!!!NIFC-rismChildID: 1001147343
!!!NIFC-islandoraID:
!!!URL-pdf-islandora: https://repozytorium.nifc.pl/islandora/object/pl-kk%3A10566/datastream/PDF/view
!!!URL-scan: https://polish.musicsources.pl/pl/lokalizacje/galeria/rekopisy/6034-masses/3 @EN{Scan on Polish Music Sources Website} @PL{Skany w portalu Dziedzictwo Muzyki Polskiej w otwartym dostępie}
!!!IIIF:
!!!ONB-nifc: UWAGA: C – skan 4-6, A – 8-10, T – 12-14, B – 16-18. Części Mszy: Kyrie, Et in terra, Quoniam, Sanctus (+Pleni i Osanna), Benedictus, Agnus Dei.
!!!AIN: 1 alto 1 bass 1 canto 1 tenor
!!!key:
**kern	**text	**dynam	**kern	**text	**dynam	**kern	**text	**dynam	**kern	**text	**dynam
*part4	*part4	*part4	*part3	*part3	*part3	*part2	*part2	*part2	*part1	*part1	*part1
*staff4	*staff4	*	*staff3	*staff3	*	*staff2	*staff2	*	*staff1	*staff1	*
*I"Basso	*	*	*I"Tenore	*	*	*I"Alto	*	*	*I"Canto	*	*
*I'B.	*	*	*I'T.	*	*	*I'A.	*	*	*I'C.	*	*
*Ibass	*	*	*Itenor	*	*	*Ialto	*	*	*Icanto	*	*
*ICvox	*	*	*ICvox	*	*	*ICvox	*	*	*ICvox	*	*
*clefF4	*	*	*clefC4	*	*	*clefC3	*	*	*clefC1	*	*
*k[b-]	*	*	*k[b-]	*	*	*k[b-]	*	*	*k[b-]	*	*
*F:	*	*	*F:	*	*	*F:	*	*	*F:	*	*
*M2/2	*	*	*M2/2	*	*	*M2/2	*	*	*M2/2	*	*
*met(c|)	*	*	*met(c|)	*	*	*met(c|)	*	*	*met(c|)	*	*
=1	=1	=1	=1	=1	=1	=1	=1	=1	=1	=1	=1
!	!	!	!	!	!	!	!	!LO:DY:a	!	!	!
*	*	*	*2\right	*	*	*	*	*	*	*	*
4F\	Et	.	2.A\	Et	.	2.c/	Et	f	4a\	Et	.
4A\	.	.	.	.	.	.	.	.	4cc\	.	.
4c\	.	.	.	.	.	.	.	.	4a\	in	.
4A\	in	.	4A\	in	.	4c/	in	.	4cc\	.	.
=2	=2	=2	=2	=2	=2	=2	=2	=2	=2	=2	=2
*2\right	*	*	*	*	*	*	*	*	*	*	*
2.F\	ter-	.	2.B-\	ter-	.	2.d/	ter-	.	2.f/	ter-	.
4F\	-ra	.	4B-\	-ra	.	4d/	-ra	.	4f/	-ra	.
=3	=3	=3	=3	=3	=3	=3	=3	=3	=3	=3	=3
*	*	*	*	*	*	*	*	*	*2\right	*	*
2C/	pax	.	2.G/	pax	.	2e\	pax	.	2.b-\	pax	.
4E\	.	.	.	.	.	8e\L	.	.	.	.	.
.	.	.	.	.	.	8b-\J	.	.	.	.	.
4C/	ho-	.	8B-/L	ho-	.	8g\L	ho-	.	4cc\	ho-	.
.	.	.	8G/J	.	.	8e\J	.	.	.	.	.
=4	=4	=4	=4	=4	=4	=4	=4	=4	=4	=4	=4
4.F\	-mi-	.	4.A/	-mi-	.	4.f\	-mi-	.	4.cc\	-mi-	.
8F\	-ni-	.	8A/	-ni-	.	8f\	-ni-	.	8cc\	-ni-	.
2F\	-bus	.	2A/	-bus	.	2f\	-bus	.	2cc\	-bus	.
=5	=5	=5	=5	=5	=5	=5	=5	=5	=5	=5	=5
4F\	bo-	.	4c\	bo-	.	4a\	bo-	.	4cc\	bo-	.
8E\L	-ne-	.	8B-\L	-ne-	.	8g\L	-ne-	.	4cc\	-ne	.
8F\J	.	.	8A\J	.	.	8f\J	.	.	.	.	.
4F\	-vo-	.	4c\	-vo-	.	4a\	-vo-	.	4cc\	-vo-	.
8E\L	-lun-	.	8B-\L	-lun-	.	8g\L	-lun-	.	4cc\	-lun-	.
8F\J	.	.	8A\J	.	.	8f\J	.	.	.	.	.
=6	=6	=6	=6	=6	=6	=6	=6	=6	=6	=6	=6
4c\	-ta-	.	4A/	-ta-	.	4f\	-ta-	.	4cc\	-ta-	.
4C/	-tis	.	4G/	-tis	.	4e\	-tis	.	4cc\	-tis	.
2r	.	.	4r	.	.	4r	.	.	2r	.	.
!	!	!	!	!	!	!	!	!LO:DY:a	!	!	!
.	.	.	8G/L	Lau-	.	8e\L	Lau-	p	.	.	.
.	.	.	8A/J	.	.	8f\J	.	.	.	.	.
!LO:LB:g=original	!	!	!LO:LB:g=original	!	!	!	!	!	!	!	!
=7	=7	=7	=7	=7	=7	=7	=7	=7	=7	=7	=7
!	!	!	!	!	!	!	!	!	!LO:TX:a:t=V.S.	!	!
!LO:TX:a:t=1	!	!	!	!	!	!	!	!	!LO:TX:a:t=1	!	!
1r	.	.	8B-\L	-da-	.	8g\L	-da-	.	1r	.	.
.	.	.	8A\	.	.	8f\	.	.	.	.	.
.	.	.	8G\	.	.	8e\	.	.	.	.	.
.	.	.	8A\J	.	.	8f\J	.	.	.	.	.
!	!	!	!	!	!	!LO:LB:g=original	!	!	!	!	!
.	.	.	8c\L	.	.	8a\L	.	.	.	.	.
.	.	.	8B-\J	.	.	8g\J	.	.	.	.	.
.	.	.	8A/L	-mus	.	8f\L	-mus	.	.	.	.
.	.	.	8G/J	.	.	8e\J	.	.	.	.	.
!	!	!	!	!	!	!	!	!	!LO:PB:g=original	!	!
=8	=8	=8	=8	=8	=8	=8	=8	=8	=8	=8	=8
!	!	!LO:DY:a	!	!	!	!	!	!	!	!	!LO:DY:a
8F\L	Be-	p	2A\	te	.	2f\	te	.	8a\L	be-	p
8G\J	.	.	.	.	.	.	.	.	8b-\J	.	.
8F\L	-ne-	.	.	.	.	.	.	.	8a\L	-ne-	.
8G\J	.	.	.	.	.	.	.	.	8b-\J	.	.
8B-\L	-di-	.	2r	.	.	2r	.	.	8dd\L	-di-	.
8A\J	.	.	.	.	.	.	.	.	8cc\J	.	.
8G\	-ci-	.	.	.	.	.	.	.	8b-\	-ci-	.
8F\	-mus	.	.	.	.	.	.	.	8a\	-mus	.
=9	=9	=9	=9	=9	=9	=9	=9	=9	=9	=9	=9
!	!	!	!	!	!LO:DY:a	!	!	!LO:DY:a	!	!	!
4C/	te	.	8G\L	a-	p	8e\L	a-	p	4g/	te	.
.	.	.	8A\J	.	.	8f\J	.	.	.	.	.
4r	.	.	8G\L	-do-	.	8e\L	-do-	.	4r	.	.
.	.	.	8A\J	.	.	8f\J	.	.	.	.	.
2r	.	.	8B-\L	-ra-	.	8g\L	-ra-	.	2r	.	.
.	.	.	8d\J	.	.	8b-\J	.	.	.	.	.
.	.	.	8c\L	-mus	.	8a\L	-mus	.	.	.	.
.	.	.	8B-\J	.	.	8g\J	.	.	.	.	.
=10	=10	=10	=10	=10	=10	=10	=10	=10	=10	=10	=10
!	!	!	!	!	!LO:DY:a	!	!	!LO:DY:a	!	!	!LO:DY:a
4r	.	.	4A\	te	f	4a\	te	f	4r	.	f
!	!	!LO:DY:a	!	!	!	!	!	!	!	!	!
4FF/	glo-	f	4f\	glo-	.	4a\	glo-	.	4cc\	glo-	.
4AA/	-ri-	.	4f\	-ri-	.	4a\	-ri-	.	4cc\	-ri-	.
4C/	-fi-	.	4f\	-fi-	.	4a\	-fi-	.	4cc\	-fi-	.
=11	=11	=11	=11	=11	=11	=11	=11	=11	=11	=11	=11
4F\	-ca-	.	4f\	-ca-	.	4a\	-ca-	.	1cc	-ca-	.
4E\	.	.	8e\L	.	.	8g\L	.	.	.	.	.
.	.	.	8d\J	.	.	8b-\J	.	.	.	.	.
4F\	.	.	8c\L	.	.	8a\L	.	.	.	.	.
.	.	.	8B-\	.	.	8g\	.	.	.	.	.
4BB-/	.	.	8A\	.	.	8f\	.	.	.	.	.
.	.	.	8G\J	.	.	8e\J	.	.	.	.	.
=12	=12	=12	=12	=12	=12	=12	=12	=12	=12	=12	=12
2C/	.	.	2A/	.	.	2f\	.	.	2cc\	.	.
2C/	-mus	.	2G/	-mus	.	2e\	-muſ	.	2cc\	-mus	.
=13	=13	=13	=13	=13	=13	=13	=13	=13	=13	=13	=13
2F\	te	.	2A/	te	.	2f\	te	.	2cc\	te	.
!	!	!	!	!	!	!LO:TX:a:t=V.S.	!	!	!	!	!
2r	.	.	2r	.	.	2r	.	.	2r	.	.
!	!	!	!LO:LB:g=original	!	!	!LO:PB:g=original	!	!	!	!	!
=14	=14	=14	=14	=14	=14	=14	=14	=14	=14	=14	=14
4.F\	gra-	.	4.c\	Gra-	.	4.a\	Gra-	.	4.a\	Gra-	.
8E\	-ti-	.	8B-\	-ti-	.	8g\	-ti-	.	8b-\	-ti-	.
2F\	-as	.	2A\	-as	.	2f\	-as	.	2cc\	-as	.
!LO:LB:g=original	!	!	!	!	!	!	!	!	!	!	!
=15	=15	=15	=15	=15	=15	=15	=15	=15	=15	=15	=15
8F\L	a-	.	8c\L	a-	.	8a\L	a-	.	2.cc\	a-	.
8E\	.	.	8B-\	.	.	8g\	.	.	.	.	.
8E\	.	.	8B-\	.	.	8g\	.	.	.	.	.
8F\J	.	.	8A\J	.	.	8f\J	.	.	.	.	.
8F\L	.	.	8c\L	.	.	8a\L	.	.	.	.	.
8E\J	.	.	8B-\J	.	.	8g\J	.	.	.	.	.
!	!	!	!	!	!	!	!	!	!LO:LB:g=original	!	!
8E\	-gi-	.	8B-\	-gi-	.	8g\	-gi-	.	8cc\	-gi-	.
8F\	-mus	.	8A\	-mus	.	8f\	-mus	.	8cc\	-mus	.
=16	=16	=16	=16	=16	=16	=16	=16	=16	=16	=16	=16
4C/	ti-	.	4A/	ti-	.	4f\	ti-	.	4cc\	ti-	.
4C/	-bi	.	4G/	-bi	.	4e\	-bi	.	4cc\	-bi	.
4C/	prop-	.	4c\	p[ro]p-	.	4e\	p(ro)p-	.	4cc\	prop-	.
4C/	-ter	.	4d\	-ter	.	4f\	-ter	.	4g/	-ter	.
=17	=17	=17	=17	=17	=17	=17	=17	=17	=17	=17	=17
8B-\L	ma-	.	8e\L	ma-	.	8g\L	ma-	.	4cc\	mag-	.
8A\J	.	.	8d\J	.	.	8f\J	.	.	.	.	.
8G\L	-gnam	.	4e\	-gnam	.	4g\	-gnam	.	4cc\	-nam	.
8F\J	.	.	.	.	.	.	.	.	.	.	.
4E\	glo-	.	8e\L	glo-	.	8g\L	glo-	.	4cc\	glo-	.
.	.	.	8g\J	.	.	8b-\J	.	.	.	.	.
8C/	-ri-	.	8f\	-ri-	.	8a\	-ri-	.	8cc\	-ri-	.
8C/	-am	.	8e\	-am	.	8g\	-am	.	8cc\	-am	.
=18	=18	=18	=18	=18	=18	=18	=18	=18	=18	=18	=18
4F\	tu-	.	1c	tu-	.	2f\	tu-	.	1cc	tu-	.
8AA/L	.	.	.	.	.	.	.	.	.	.	.
8BB-/J	.	.	.	.	.	.	.	.	.	.	.
2C/	.	.	.	.	.	2e\	.	.	.	.	.
=19	=19	=19	=19	=19	=19	=19	=19	=19	=19	=19	=19
2F\	-am	.	2c\	-am	.	2f\	-am	.	2cc\	-am	.
!	!	!	!	!	!	!LO:LB:g=original	!	!	!	!	!
2r	.	.	8c\L	Do-	.	8a\L	Do-	.	8f/L	Do-	.
.	.	.	8d\J	.	.	8b-\J	.	.	8e/J	.	.
.	.	.	8c\	-mi-	.	8a\	-mi-	.	8f/	-mi-	.
.	.	.	8B-\	-ne	.	8g\	-ne	.	8f/	-ne	.
!	!	!	!LO:LB:g=original	!	!	!	!	!	!	!	!
=20	=20	=20	=20	=20	=20	=20	=20	=20	=20	=20	=20
0r	.	.	8c\L	De-	.	8a\L	De-	.	4f/	De-	.
.	.	.	8B-\J	.	.	8g\J	.	.	.	.	.
.	.	.	4A\	-us	.	4f\	-us	.	4cc\	-us	.
.	.	.	8B-\L	Rex-	.	8g\L	Rex-	.	4cc\	Rex-	.
.	.	.	8c\J	.	.	8a\J	.	.	.	.	.
.	.	.	8B-\L	-ce-	.	8g\L	-ce-	.	4cc\	-ce-	.
.	.	.	8A\J	.	.	8f\J	.	.	.	.	.
!	!	!	!	!	!	!	!	!	!LO:LB:g=original	!	!
=21	=21	=21	=21	=21	=21	=21	=21	=21	=21	=21	=21
.	.	.	8B-\L	-le-	.	8g\L	-le-	.	4cc\	-les-	.
.	.	.	8A\J	.	.	8f\J	.	.	.	.	.
.	.	.	4G\	-stis	.	4e\	-stis	.	4cc\	-tis	.
.	.	.	8G\L	De-	.	8e\L	De-	.	4cc\	De-	.
.	.	.	8A\J	.	.	8f\J	.	.	.	.	.
.	.	.	4B-\	-us	.	4g\	-us	.	4cc\	-us	.
=22	=22	=22	=22	=22	=22	=22	=22	=22	=22	=22	=22
1r	.	.	8A\L	Pa-	.	8f\L	Pa-	.	4f/	pa-	.
.	.	.	8c\J	.	.	8a\J	.	.	.	.	.
.	.	.	8d\	-ter	.	8b-\	-ter	.	8b-\	-ter	.
.	.	.	8B-\	om-	.	8g\	om-	.	8dd\	om-	.
.	.	.	4A/	-ni-	.	4f\	-ni-	.	4cc\	-ni-	.
.	.	.	4G/	-po-	.	4e\	-po-	.	4cc\	-po-	.
=23	=23	=23	=23	=23	=23	=23	=23	=23	=23	=23	=23
2r	.	.	2A/	-tens	.	2f\	-tens	.	2cc\	-tens	.
8B-\L	Do-	.	2r	.	.	4f\	Do-	.	8dd\L	Do-	.
8d\J	.	.	.	.	.	.	.	.	8ff\J	.	.
8c\	-mi-	.	.	.	.	8f\	-mi-	.	8ee-X\L	-mi-	.
8B-\	-ne	.	.	.	.	8f\	-ne	.	8dd\J	-ne	.
!LO:LB:g=original	!	!	!	!	!	!LO:LB:g=original	!	!	!	!	!
=24	=24	=24	=24	=24	=24	=24	=24	=24	=24	=24	=24
!	!	!	!LO:TX:a:t=2	!	!	!	!	!	!	!	!
4A\	Fi-	.	0r	.	.	4f\	Fi-	.	4cc\	Fi-	.
4A\	-li	.	.	.	.	4f\	-li	.	4cc\	-li	.
8A\L	u-	.	.	.	.	4f\	u-	.	8cc\L	u-	.
8B-\J	.	.	.	.	.	.	.	.	8dd\J	.	.
8c\	.	.	.	.	.	4f\	-ni	.	8ee-X\	.	.
8A\	-ni	.	.	.	.	.	.	.	8cc\	-ni	.
=25	=25	=25	=25	=25	=25	=25	=25	=25	=25	=25	=25
8B-\L	ge-	.	.	.	.	4.f\	ge-	.	8dd\L	ge-	.
8c\J	.	.	.	.	.	.	.	.	8ee\J	.	.
8B-\	.	.	.	.	.	.	.	.	8dd\	.	.
8F\	-ni-	.	.	.	.	8e-X\	-ni-	.	8ee\	-ni-	.
4BB-/	-te	.	.	.	.	4d\	-te	.	4ff\	-te	.
4r	.	.	.	.	.	4r	.	.	4r	.	.
!	!	!	!	!	!	!	!	!	!LO:LB:g=original	!	!
=26	=26	=26	=26	=26	=26	=26	=26	=26	=26	=26	=26
2E-X\	Je-	.	2A\	Je-	.	2g\	Je-	.	2cc\	Je-	.
2D\	-su	.	2B-\	-su	.	2f\	-su	.	2b-\	-su	.
=27	=27	=27	=27	=27	=27	=27	=27	=27	=27	=27	=27
8D\L	Chri-	.	8d\L	Chri-	.	8f\L	Chri-	.	1f	Chri-	.
8E\J	.	.	8c\J	.	.	8e\J	.	.	.	.	.
2F\	.	.	2B-\	.	.	2d\	.	.	.	.	.
4FF/	.	.	4A\	.	.	4c\	.	.	.	.	.
!	!	!	!LO:LB:g=original	!	!	!	!	!	!	!	!
=28	=28	=28	=28	=28	=28	=28	=28	=28	=28	=28	=28
2BB-/	-ste	.	2B-\	-ste	.	2d\	-ste	.	2f/	-ste	.
4BBn/	Do-	.	4G/	Do-	.	4d\	Do-	.	4f/	Do-	.
8BB/	-mi-	.	8G/	-mi-	.	8d\	-mi-	.	8f/	-mi-	.
8BB/	-ne	.	8G/	-ne	.	8d\	-ne	.	8f/	-ne	.
=29	=29	=29	=29	=29	=29	=29	=29	=29	=29	=29	=29
4C/	de-	.	4G/	De-	.	4e-X\	De-	.	4e-X/	De-	.
4C/	-us	.	4G/	-us	.	4e-\	-us	.	4e-/	-us	.
4C#X/	A-	.	4A/	A-	.	4en\	A-	.	4g/	A-	.
4C#/	-gnus	.	4A/	-gnus	.	4e\	-gnus	.	4g/	-gnus	.
!LO:LB:g=original	!	!	!	!	!	!LO:LB:g=original	!	!	!	!	!
=30	=30	=30	=30	=30	=30	=30	=30	=30	=30	=30	=30
4D\	De-	.	4A/	De-	.	4f\	De-	.	4f/	De-	.
4D\	-i	.	4A/	-i	.	4f\	-i	.	4f/	-i	.
4F\	Fi-	.	4d\	Fi-	.	4a\	Fi-	.	4f/	Fi-	.
8E\	-li-	.	8c#X\	-li-	.	8g\	-li-	.	8g/	-li-	.
8D\	-us	.	8d\	-us	.	8f\	-us	.	8a/	-us	.
=31	=31	=31	=31	=31	=31	=31	=31	=31	=31	=31	=31
2A\	Pa-	.	2d\	Pa-	.	2f\	Pa-	.	1a	Pa-	.
2AA/	.	.	2c\	.	.	2e\	.	.	.	.	.
=32	=32	=32	=32	=32	=32	=32	=32	=32	=32	=32	=32
2D\	-tris	.	2d\	-tris	.	2f\	-tris	.	2a\	-tris	.
!LO:TX:a:t=adagio	!	!	!LO:TX:a:t=ada(gio)	!	!	!LO:TX:a:t=adagi(o)	!	!	!	!	!
4r	.	.	2r	.	.	2r	.	.	2r	.	.
4A\	Qui-	.	.	.	.	.	.	.	.	.	.
!	!	!	!	!	!	!	!	!	!LO:LB:g=original	!	!
=33	=33	=33	=33	=33	=33	=33	=33	=33	=33	=33	=33
!	!	!	!	!	!	!	!	!	!LO:TX:a:t=adagio	!	!
4d\	-tol-	.	2r	.	.	2r	.	.	2r	.	.
4A\	.	.	.	.	.	.	.	.	.	.	.
8G\L	-lis	.	4r	.	.	4r	.	.	4r	.	.
8F\J	.	.	.	.	.	.	.	.	.	.	.
8E\L	pec-	.	4d\	pec-	.	4f\	pec-	.	4a\	pec-	.
8D\J	.	.	.	.	.	.	.	.	.	.	.
=34	=34	=34	=34	=34	=34	=34	=34	=34	=34	=34	=34
4C#X/	-ca-	.	4e\	-ca-	.	4g\	-ca-	.	4b-\	-ca-	.
4D/	-ta	.	4d\	-ta	.	4f\	-ta	.	4a\	-ta	.
!	!	!	!LO:LB:g=original	!	!	!	!	!	!	!	!
4r	.	.	4r	.	.	4r	.	.	4r	.	.
4D/	pec-	.	4d\	pec-	.	4f\	pec-	.	4a\	pec-	.
=35	=35	=35	=35	=35	=35	=35	=35	=35	=35	=35	=35
4B-\	-ca-	.	4d\	-ca-	.	4f\	-ca-	.	4g\	-ca-	.
4B-\	-ta	.	4d\	-ta	.	4f\	-ta	.	4g\	-ta	.
2G#X\	mun-	.	2d\	Mun-	.	2f\	mun-	.	2bn\	mun-	.
=36	=36	=36	=36	=36	=36	=36	=36	=36	=36	=36	=36
2A\	-di	.	2c#X\	-di	.	2e\	-di	.	2a\	-di	.
2r	.	.	2r	.	.	2r	.	.	2r	.	.
!LO:LB:g=original	!	!	!	!	!	!	!	!	!	!	!
=37	=37	=37	=37	=37	=37	=37	=37	=37	=37	=37	=37
!	!	!	!	!	!LO:DY:a	!	!	!LO:DY:b:t=p	!	!	!
2A\	mi-	p	2c#X\	Mi-	p	2a\	mi-	p	2ee\	Mi-	p
2B-X\	-se-	.	2d\	-se-	.	2g\	-se-	.	2dd\	-se-	.
!	!	!	!	!	!	!LO:LB:g;original	!	!	!	!	!
=38	=38	=38	=38	=38	=38	=38	=38	=38	=38	=38	=38
2c#X\	-re-	.	2e\	-re-	.	2g\	-re-	.	2a\	-re-	.
2d\	-re	.	2d\	-re	.	2f\	-re	.	2a\	-re	.
=39	=39	=39	=39	=39	=39	=39	=39	=39	=39	=39	=39
4B-\	no-	.	2d\	no-	.	4g\	no-	.	2b-\	no-	.
4G\	.	.	.	.	.	4b-\	.	.	.	.	.
4A\	.	.	4d\	.	.	4a\	.	.	2a\	.	.
4AA/	.	.	4e\	.	.	4g\	.	.	.	.	.
=40	=40	=40	=40	=40	=40	=40	=40	=40	=40	=40	=40
2D/	-bis	.	2d\	-bis	.	2f\	-bis	.	2a\	-bis	.
4r	.	.	2r	.	.	2r	.	.	2r	.	.
!	!	!LO:DY:b:t=for	!	!	!	!	!	!	!	!	!
4A\	Qui-	f	.	.	.	.	.	.	.	.	.
=41	=41	=41	=41	=41	=41	=41	=41	=41	=41	=41	=41
4d\	-tol-	.	2r	.	.	2r	.	.	2r	.	.
4A\	.	.	.	.	.	.	.	.	.	.	.
!	!	!	!	!	!LO:DY:a	!	!	!	!	!	!
8G\L	-lis	.	4r	.	f	4r	.	.	4r	.	.
8F\J	.	.	.	.	.	.	.	.	.	.	.
!	!	!	!	!	!	!	!	!	!	!	!LO:DY:a
8E\L	pec-	.	4d\	pec-	.	4f\	pec-	.	4a\	pec-	f
8D\J	.	.	.	.	.	.	.	.	.	.	.
!	!	!	!	!	!	!	!	!	!LO:LB:g=original	!	!
=42	=42	=42	=42	=42	=42	=42	=42	=42	=42	=42	=42
4C#X/	-ca-	.	4e\	-ca-	.	4g\	-ca-	.	4b-\	-ca-	.
4D/	-ta	.	4d\	-ta	.	4f\	-ta	.	4a\	-ta	.
4r	.	.	4r	.	.	4r	.	.	4r	.	.
4D/	pec-	.	4d\	pec-	.	4f\	pec-	.	4a\	pec-	.
!	!	!	!LO:LB:g=original	!	!	!	!	!	!	!	!
=43	=43	=43	=43	=43	=43	=43	=43	=43	=43	=43	=43
4E\	-ca-	.	4cn\	-ca-	.	4g\	-ca-	.	4b-\	-ca-	.
4F\	-ta	.	4c\	-ta	.	4a\	-ta	.	4a\	-ta	.
4G\	mun-	.	2e\	mun-	.	2b-\	Mun-	.	2cc\	mun-	.
4Cn/	.	.	.	.	.	.	.	.	.	.	.
!LO:LB:g=original	!	!	!	!	!	!	!	!	!	!	!
=44	=44	=44	=44	=44	=44	=44	=44	=44	=44	=44	=44
2F\	-di	.	2c\	-di	.	2a\	-di	.	2cc\	-di	.
2r	.	.	2r	.	.	2r	.	.	2r	.	.
!	!	!	!	!	!	!LO:LB:g=original	!	!	!	!	!
=45||	=45||	=45||	=45||	=45||	=45||	=45||	=45||	=45||	=45||	=45||	=45||
*M3/2	*	*	*M3/2	*	*	*M3/2	*	*	*M3/2	*	*
!	!	!LO:DY:a	!	!	!LO:DY:a	!LO:TX:a:t=adagio	!	!	!	!	!LO:DY:a
4F\	Sus-	p	4c\	Sus-	p	4f\	Sus-	.	4a-X\	Sus-	p
4G\	.	.	4d-X\	.	.	4e\	.	.	4b-\	.	.
4F\	.	.	4c\	.	.	4f\	.	.	4a-\	.	.
4G\	-ci-	.	4d-\	-ci-	.	4e\	-ci-	.	4b-\	-ci-	.
2F\	-pe	.	2c\	-pe	.	2f\	-pe	.	2a-\	-pe	.
=46	=46	=46	=46	=46	=46	=46	=46	=46	=46	=46	=46
!	!	!	!	!	!	!	!	!LO:DY:a	!	!	!
4En\	Sus-	.	4B-X\	Sus-	.	4e\	Sus-	pp	4g\	Sus-	.
4F\	.	.	4c\	.	.	4f\	.	.	4a\	.	.
4E\	.	.	4B-\	.	.	4e\	.	.	4g\	.	.
4F\	-ci-	.	4c\	-ci-	.	4f\	-ci-	.	4a\	-ci-	.
2E\	-pe	.	2B-\	-pe	.	2e\	-pe	.	2g\	-pe	.
=47	=47	=47	=47	=47	=47	=47	=47	=47	=47	=47	=47
4F\	de-	.	4c\	de-	.	4f\	de-	.	4a-X\	de-	.
4F\	-pre-	.	4c\	-pre-	.	4f\	-pre-	.	4a-\	-pre-	.
4F\	-ca-	.	2.c\	-ca-	.	2f\	-ca-	.	4a-\	-ca-	.
4A-X\	.	.	.	.	.	.	.	.	4cc\	.	.
4G\	.	.	.	.	.	4en\	.	.	4b-\	.	.
4F\	-ti-	.	4c\	-ti-	.	4f\	-ti-	.	4a-\	-ti-	.
!	!	!	!	!	!	!	!	!	!LO:LB:g=original	!	!
=48	=48	=48	=48	=48	=48	=48	=48	=48	=48	=48	=48
4E\	-o-	.	1c	-o-	.	1e	-o-	.	4g/	-o-	.
4C\	.	.	.	.	.	.	.	.	4e/	.	.
4E\	.	.	.	.	.	.	.	.	4g/	.	.
4G\	.	.	.	.	.	.	.	.	4cc\	.	.
4c\	.	.	2c\	-nem	.	2e\	-nem	.	2g/	-nem	.
4B-X\	-nem	.	.	.	.	.	.	.	.	.	.
!LO:LB:g=original	!	!	!LO:LB:g=original	!	!	!	!	!	!	!	!
=49	=49	=49	=49	=49	=49	=49	=49	=49	=49	=49	=49
2A\	no-	.	1.c	no-	.	2f\	no-	.	2cc\	no-	.
2G\	.	.	.	.	.	2e\	.	.	2b-\	.	.
2F\	.	.	.	.	.	2f\	.	.	2a-X\	.	.
!	!	!	!	!	!	!LO:LB:g=original	!	!	!	!	!
=50	=50	=50	=50	=50	=50	=50	=50	=50	=50	=50	=50
.	.	.	.	.	.	8qf/	.	.	8qa/	.	.
2c\	.	.	2c\	.	.	2e\	.	.	2g/	.	.
2C/	-stram	.	2c\	-stram	.	2e\	-stram	.	2g/	-stram	.
!	!	!	!	!	!	!	!	!	!LO:TX:a:t=all(egr)o	!	!
4r	.	.	4r	.	.	4r	.	.	2r	.	.
!LO:TX:a:t=all(egr)o	!	!	!LO:TX:a:t=all(egr)o	!	!	!LO:TX:b:t=allo	!	!	!	!	!
4C/	qui	.	8c\L	qui	f	8an\L	qui	.	.	.	.
.	.	.	8B-\J	.	.	8g\J	.	.	.	.	.
=51	=51	=51	=51	=51	=51	=51	=51	=51	=51	=51	=51
!	!	!	!	!	!	!	!	!	!	!	!LO:DY:a
2F\	se-	.	2An\	se-	.	2f\	se-	.	2cc\	qui	f
2F\	-des	.	2A\	-des	.	2f\	-de	.	2cc\	se-	.
2E\	ad	.	2B-\	ad	.	2g\	ad	.	2cc\	-des	.
=52	=52	=52	=52	=52	=52	=52	=52	=52	=52	=52	=52
2.F\	dex-	.	2.c\	dex-	.	2.a\	dex-	.	2.ff\	ad	.
4F\	-te-	.	4d\	-te-	.	4b-\	-te-	.	4ff\	dex-	.
2F\	-ram	.	2c\	-ram	.	2a\	-ram	.	2ff\	-te-	.
=53	=53	=53	=53	=53	=53	=53	=53	=53	=53	=53	=53
2F\	Pa-	.	2c\	Pa-	.	2a\	Pa-	.	2ff\	-ram	.
2B-\	.	.	2B-\	.	.	2g\	.	.	1dd	Pa-	.
!	!	!	!LO:TX:t=P:problem:dźwięk a narysowany innym kolorem	!	!	!	!	!	!	!	!
2Bn\	.	.	2G/	.	.	2f\	.	.	.	.	.
=54	=54	=54	=54	=54	=54	=54	=54	=54	=54	=54	=54
1c	-tris	.	1G	-tris	.	2e\	-tris	.	1cc	-tris	.
.	.	.	.	.	.	2r	.	.	.	.	.
2r	.	.	2r	.	.	2r	.	.	2r	.	.
!	!	!	!	!	!	!	!	!	!LO:LB:g=original	!	!
=55	=55	=55	=55	=55	=55	=55	=55	=55	=55	=55	=55
!LO:TX:b:t=adagio	!	!LO:DY:b:t=p	!LO:TX:b:t=adagio	!	!	!LO:TX:b:t=adagio	!	!	!LO:TX:b:t=adagio	!	!LO:DY:a
1c#X	mi-	p	1e	mi-	p	1g	mi-	.	1b-	mi-	p
2c#\	-se-	.	2e\	-se-	.	2g\	-se-	.	2b-\	-se-	.
!LO:LB:g=original	!	!	!	!	!	!	!	!	!	!	!
=56	=56	=56	=56	=56	=56	=56	=56	=56	=56	=56	=56
2d\	-re-	.	2d\	-re-	.	2a\	-re-	.	1a	-re-	.
2A\	.	.	2c#X\	.	.	2g\	.	.	.	.	.
2D\	-re	.	2A\	-re	.	2f\	-re	.	2dd\	-re	.
!	!	!	!LO:PB:g=original	!	!	!LO:LB:g=original	!	!	!	!	!
=57	=57	=57	=57	=57	=57	=57	=57	=57	=57	=57	=57
2C#X/	Mi-	.	1A	mi-	.	2e\	mi-	.	2ee\	mi-	.
2D/	.	.	.	.	.	2f\	.	.	2dd\	.	.
2E/	-se-	.	2c#X\	-se-	.	2g\	-se-	.	2a\	-se-	.
=58	=58	=58	=58	=58	=58	=58	=58	=58	=58	=58	=58
2D\	-re-	.	2A\	-re-	.	2f\	-re-	.	2dd\	-re-	.
2E\	.	.	2c\	.	.	2g\	.	.	2a\	.	.
2F\	-re	.	2d\	-re	.	2a\	-re	.	2a\	-re	.
=59	=59	=59	=59	=59	=59	=59	=59	=59	=59	=59	=59
2G\	no-	.	2e\	no-	.	2b-\	no-	.	2cc#X\	no-	.
2A\	.	.	2f\	.	.	2a\	.	.	2dd\	.	.
2AA/	.	.	2e\	.	.	2g\	.	.	2a\	.	.
=60	=60	=60	=60	=60	=60	=60	=60	=60	=60	=60	=60
1D	-bis	.	1.d	-bis	.	1.f	-bis	.	1.a	-bis	.
2r	.	.	.	.	.	.	.	.	.	.	.
==	==	==	==	==	==	==	==	==	==	==	==
*-	*-	*-	*-	*-	*-	*-	*-	*-	*-	*-	*-
!!!system-decoration: [(s1,s2,s3,s4)]
!!!ENC: Berenika Jozajtis
!!!END: 2024-02-11
!!!ENC: Leszek Kubiak
!!!END: 2024-08-04
